archdroid-icon-theme/Archdroid-Cyan/places/scalable/folder-collection-arch.svg

<?xml version="1.0" encoding="UTF-8" standalone="no"?>
<svg
   xmlns:dc="http://purl.org/dc/elements/1.1/"
   xmlns:cc="http://creativecommons.org/ns#"
   xmlns:rdf="http://www.w3.org/1999/02/22-rdf-syntax-ns#"
   xmlns:svg="http://www.w3.org/2000/svg"
   xmlns="http://www.w3.org/2000/svg"
   xmlns:sodipodi="http://sodipodi.sourceforge.net/DTD/sodipodi-0.dtd"
   xmlns:inkscape="http://www.inkscape.org/namespaces/inkscape"
   fill="#00BCD4"
   width="48"
   height="48"
   viewBox="0 0 48 48"
   id="svg2"
   version="1.1"
   inkscape:version="0.91 r13725"
   sodipodi:docname="folder-arch-collection.svg">
  <metadata
     id="metadata10">
    <rdf:RDF>
      <cc:Work
         rdf:about="">
        <dc:format>image/svg+xml</dc:format>
        <dc:type
           rdf:resource="http://purl.org/dc/dcmitype/StillImage" />
        <dc:title></dc:title>
      </cc:Work>
    </rdf:RDF>
  </metadata>
  <defs
     id="defs8" />
  <sodipodi:namedview
     pagecolor="#ffffff"
     bordercolor="#666666"
     borderopacity="1"
     objecttolerance="10"
     gridtolerance="10"
     guidetolerance="10"
     inkscape:pageopacity="0"
     inkscape:pageshadow="2"
     inkscape:window-width="1366"
     inkscape:window-height="713"
     id="namedview6"
     showgrid="false"
     inkscape:zoom="4.9166667"
     inkscape:cx="24"
     inkscape:cy="24"
     inkscape:window-x="0"
     inkscape:window-y="30"
     inkscape:window-maximized="1"
     inkscape:current-layer="svg2" />
  <path
     d="m 8,12 -4,0 0,28 c 0,2.21 1.79,4 4,4 l 28,0 0,-4 -28,0 0,-28 z"
     id="path4146" />
  <path
     d="M 16 4 C 13.79 4 12 5.79 12 8 L 12 32 C 12 34.21 13.79 36 16 36 L 40 36 C 42.21 36 44 34.21 44 32 L 44 8 C 44 5.79 42.21 4 40 4 L 16 4 z M 28 10 C 28.0145 10.03403 28.024732 10.056174 28.039062 10.089844 C 28.366394 10.858797 28.651515 11.529008 28.927734 12.177734 C 28.931854 12.187394 28.935353 12.199384 28.939453 12.208984 C 28.974311 12.290763 29.016031 12.38759 29.050781 12.46875 C 29.121843 12.632167 29.222362 12.866893 29.289062 13.019531 C 30.01231 14.687759 30.812993 16.413438 32.320312 19.34375 C 32.386142 19.472149 32.469372 19.632049 32.539062 19.767578 C 33.344334 21.324978 34.320568 23.174415 35.607422 25.570312 C 34.931784 25.164649 34.064127 24.800895 32.853516 24.486328 C 34.614804 25.390338 35.476866 26.225572 36.304688 26.867188 C 36.830232 27.841711 37.383442 28.864873 38 30 C 34.873564 28.195052 32.440594 27.072123 30.175781 26.628906 C 30.251228 26.287662 30.295188 25.919627 30.304688 25.537109 C 30.354984 23.506329 29.380324 21.774003 28.128906 21.667969 C 26.877488 21.561935 25.821784 23.123518 25.771484 25.154297 L 25.767578 25.253906 C 25.763789 25.730272 25.816112 26.189112 25.914062 26.611328 C 23.624617 27.042056 21.168961 28.170503 18 30 C 19.962073 26.474553 21.407845 23.82442 22.554688 21.673828 C 23.354807 20.17302 24.000095 18.926628 24.529297 17.871094 C 24.796298 17.338471 25.071238 16.792414 25.289062 16.337891 C 25.291062 16.339591 25.292922 16.34205 25.294922 16.34375 C 25.412951 16.44282 25.548269 16.538929 25.681641 16.636719 C 25.734799 16.675736 25.780117 16.715066 25.835938 16.753906 C 25.888586 16.790501 25.952683 16.826831 26.007812 16.863281 C 26.158108 16.962803 26.30821 17.063459 26.478516 17.162109 C 26.479816 17.162909 26.481122 17.163294 26.482422 17.164062 C 26.715303 17.298839 26.966842 17.43269 27.242188 17.566406 C 27.518532 17.700487 27.817856 17.833082 28.142578 17.966797 C 27.842757 17.757029 27.572038 17.55294 27.324219 17.355469 C 27.322219 17.353969 27.320259 17.353162 27.318359 17.351562 C 26.572962 16.757081 26.04199 16.219346 25.587891 15.738281 C 25.585291 15.735581 25.580625 15.733169 25.578125 15.730469 C 26.569268 13.612767 27.109779 12.182582 28 10 z "
     id="path4144" />
</svg>

<svg xmlns="http://www.w3.org/2000/svg" fill="#00BCD4" viewBox="0 0 48 48"><path d="m8 12h-4v28c0 2.21 1.79 4 4 4h28v-4h-28v-28"/><path d="m16 4c-2.21 0-4 1.79-4 4v24c0 2.21 1.79 4 4 4h24c2.21 0 4-1.79 4-4v-24c0-2.21-1.79-4-4-4h-24m12 6c.015.034.025.056.039.09.327.769.612 1.439.889 2.088.004.01.008.022.012.031.035.082.077.179.111.26.071.163.172.398.238.551.723 1.668 1.524 3.394 3.03 6.324.066.128.149.288.219.424.805 1.557 1.782 3.407 3.068 5.803-.676-.406-1.543-.769-2.754-1.084 1.761.904 2.623 1.739 3.451 2.381.526.975 1.079 1.998 1.695 3.133-3.126-1.805-5.559-2.928-7.824-3.371.075-.341.119-.709.129-1.092.05-2.031-.924-3.763-2.176-3.869-1.251-.106-2.307 1.456-2.357 3.486l-.004.1c-.004.476.049.935.146 1.357-2.289.431-4.745 1.559-7.914 3.389 1.962-3.525 3.408-6.176 4.555-8.326.8-1.501 1.445-2.747 1.975-3.803.267-.533.542-1.079.76-1.533.002.002.004.004.006.006.118.099.253.195.387.293.053.039.098.078.154.117.053.037.117.073.172.109.15.1.3.2.471.299.001.001.003.001.004.002.233.135.484.269.76.402.276.134.576.267.9.4-.3-.21-.571-.414-.818-.611-.002-.002-.004-.002-.006-.004-.745-.594-1.276-1.132-1.73-1.613-.003-.003-.007-.005-.01-.008.991-2.118 1.532-3.548 2.422-5.73"/></svg>
